!! 00007] TT[TB
!! Eigene Aufnahme
!!!OTL: Ku qiqi
!!!ARE: Asia, China,ˇnan Jiangsu, Suzhou
!! Ethnic Group: Han
!! III, 473
!!!SCT: C0166
!!!YEM: Copyright 1995, estate of Helmut Schaffrath.
**kern
*ICvox
*Ivox
*M2/4
*k[f#]
*G:
{8b
16b
16a
16b
16a
16b
16dd
=1
8g
16g
16e
16dd
16ee
8b
=2
8b
4.a}
=3
{8g
16g
16e
16.e
32g
16a
16b
=4
16.a
32g
16e
16d
16c
16B
16A
16B
=5
2d}
=6
{4e
16g
16a
16e
16d
=7
8.e
16g
8a
8b
=8
16dd
16b
8a
16a
16g
16e
16d
=9
2e}
=10
{8.g
16a
16b
16a
16dd
16b
=11
8.a
16g
16g
16e
8d
=12
16d
16B
8d
16a
16f#
8e
=13
8B
4.d}
==
!!!AGN: Xiaodiao, Shidiao, Chundiao, MengjiangnÅ diao. Ji wangfu, Biao aisi
!! Der Gesang weicht stark vom Notentext ab! Variante von meng jiang
!!    n}, vielleicht aber nur der Text)
!!    Urspruenglich gilt dieses Lied einer alten Sitte: Nach dem Tod
!!    eines Ehepartners muss der Ueberlebende 7 Wochen lang trauern.
!!    Daher "qi qi". Hier trauert eine Frau 49 Tage lang um ihren Mann.
!!    Anfangs klagt sie, was sie ohne ihn machen soll, aber in der
!!    letzten Strophe beklagt sie sich, dass sie drei Jahre lang nicht
!!    mehr heiraten darf, aber frueher moechte. Saengerin: Huang Bai
!!    Wenig Verzierungen. 2. Strophe: Veraenderungen im Notentext.
!!!ONB: ESAC (Essen Associative Code) Database: CHINA
!!!AMT: simple duple
!!!AIN: vox
!!!EED: Helmut Schaffrath
!!!EEV: 1.0
*-
